X: 1769
T: April Storm
R: jig
M: 6/8
K: Edorian
|:e2 e2 B/c/d|e2 e2 de|fgf edB|fgf edB|
e2 e2 B/c/d|e2 e2 ef|gfe dcB|1 AGF E2d:|2 AGF E2D||
|:E2E FED|EFA B2c|d2d ABd|BdB A2F|
E2E FED|EFA B2f|gfe dcB|1 AGF E2D:|2 AGF E2d||

